X:260
T: Brendan's Fancy
S: "First Collection of Traditional Irish Music" (M.Mulvihill)
Z: B.Black
L: 1/8
M: C|
R: hornpipe
K: G
D/F/|GABc defa|(3gag dc BG (3GFG|FGAB cedc|BGAG (3FGF D2|
GABc defa|(3gag dc BG (3GFG|FGAB cAGF|DGGF G3 :|
B/c/|d2 dc dcBc|defa gedB|c2 cB cBAG|FGAB cAFA|
d2 dc dcBc|defa gedc|Bdgd cAGF|DGGF G3 :|
